; generated by PrusaSlicer 2.5.0+MacOS-x64 on 2022-12-30 at 01:41:23 UTC


;
;
; 

; external perimeters extrusion width = 0.45mm
; perimeters extrusion width = 0.45mm
; infill extrusion width = 0.45mm
; solid infill extrusion width = 0.45mm
; top infill extrusion width = 0.40mm
; first layer extrusion width = 0.42mm

; external perimeters extrusion width = 0.45mm
; perimeters extrusion width = 0.45mm
; infill extrusion width = 0.45mm
; solid infill extrusion width = 0.45mm
; top infill extrusion width = 0.40mm
; first layer extrusion width = 0.42mm

M73 P0 R9
M73 Q0 S9
M201 X1000 Y1000 Z200 E5000 ; sets maximum accelerations, mm/sec^2
M203 X200 Y200 Z12 E120 ; sets maximum feedrates, mm / sec
M204 P1250 R1250 T1250 ; sets acceleration (P, T) and retract acceleration (R), mm/sec^2
M205 X8.00 Y8.00 Z0.40 E4.50 ; sets the jerk limits, mm/sec
M205 S0 T0 ; sets the minimum extruding and travel feed rate, mm/sec
M107
;TYPE:Custom
M862.3 P "MK3S" ; printer model check
M862.1 P0.4 ; nozzle diameter check
M115 U3.11.0 ; tell printer latest fw version
G90 ; use absolute coordinates
M83 ; extruder relative mode
M104 S240 ; set extruder temp
M140 S85 ; set bed temp
M190 S85 ; wait for bed temp
M109 S240 ; wait for extruder temp
G28 W ; home all without mesh bed level
G80 ; mesh bed leveling

G1 Z0.2 F720
G1 Y-3 F1000 ; go outside print area
G92 E0
G1 X60 E9 F1000 ; intro line
G1 X100 E12.5 F1000 ; intro line

G92 E0
M221 S95

; Don't change E values below. Excessive value can damage the printer.
M907 E430 ; set extruder motor current
G21 ; set units to millimeters
G90 ; use absolute coordinates
M83 ; use relative distances for extrusion
M900 K0.08 ; Filament gcode LA 1.5
M900 K45 ; Filament gcode LA 1.0
M107
;LAYER_CHANGE
;Z:0.2
;HEIGHT:0.2
;BEFORE_LAYER_CHANGE
G92 E0.0
;0.2


G1 E-1 F2100
M73 P1 R9
M73 Q1 S9
G1 Z.2 F720
;AFTER_LAYER_CHANGE
;0.2
G1 Z.4
G1 X113.789 Y97.883 F10800
G1 Z.2 F720
G1 E1 F2100
M204 S800
;TYPE:Skirt/Brim
;WIDTH:0.42
G1 F1200
G1 X114.855 Y96.869 E.04612
G1 X116.15 Y96.546 E.04186
G1 X158.85 Y96.546 E1.33883
G1 X160.267 Y96.939 E.04612
G1 X161.281 Y98.005 E.04612
G1 X161.604 Y99.3 E.04186
G1 X161.604 Y110.7 E.35744
G1 X161.211 Y112.117 E.04612
G1 X160.145 Y113.131 E.04612
G1 X158.85 Y113.454 E.04186
G1 X116.15 Y113.454 E1.33883
G1 X114.733 Y113.061 E.04612
M73 P2 R9
M73 Q2 S9
G1 X113.719 Y111.995 E.04612
G1 X113.396 Y110.7 E.04186
G1 X113.396 Y99.3 E.35744
G1 X113.773 Y97.94 E.04424
M204 S1000
G1 X114.147 Y98.052 F10800
M204 S800
G1 F1200
G1 X114.165 Y97.993 E.00195
G1 X115.21 Y97.117 E.04278
G1 X116.15 Y96.923 E.03008
G1 X158.85 Y96.923 E1.33883
G1 X160.157 Y97.315 E.04278
G1 X161.033 Y98.36 E.04278
G1 X161.227 Y99.3 E.03008
G1 X161.227 Y110.7 E.35744
G1 X160.835 Y112.007 E.04278
G1 X159.79 Y112.883 E.04278
G1 X158.85 Y113.077 E.03008
G1 X116.15 Y113.077 E1.33883
G1 X114.843 Y112.685 E.04278
M73 P3 R9
M73 Q3 S9
G1 X113.967 Y111.64 E.04278
G1 X113.773 Y110.7 E.03008
G1 X113.773 Y99.3 E.35744
G1 X114.129 Y98.11 E.03895
M204 S1000
; printing object HHKBusbcover.stl id:1 copy 0
;WIPE_START
G1 F8640
G1 X114.165 Y97.993 E-.0282
G1 X115.21 Y97.117 E-.31505
G1 X116.15 Y96.923 E-.22155
G1 X117.818 Y96.923 E-.3852
;WIPE_END
G1 E-.05 F2100
G1 Z.4 F720
G1 X141.937 Y100.087 F10800
G1 Z.2 F720
G1 E1 F2100
M204 S800
;TYPE:Perimeter
;WIDTH:0.419999
G1 F1200
G1 X158.063 Y100.087 E.50561
G1 X158.063 Y109.913 E.30808
G1 X141.937 Y109.913 E.50561
G1 X141.937 Y100.147 E.3062
M204 S1000
G1 X141.56 Y99.71 F10800
M204 S800
;TYPE:External perimeter
G1 F1200
G1 X158.44 Y99.71 E.52926
G1 X158.44 Y110.29 E.33173
M73 P4 R9
M73 Q4 S9
G1 X141.56 Y110.29 E.52926
G1 X141.56 Y99.77 E.32985
M204 S1000
G1 X141.953 Y99.784 F10800
;WIPE_START
G1 F8640
G1 X145.674 Y99.755 E-.95
;WIPE_END
G1 E-.05 F2100
G1 Z.4 F720
G1 X157.95 Y100.979 F10800
G1 Z.2 F720
G1 E1 F2100
M204 S800
;TYPE:Solid infill
;WIDTH:0.427686
G1 F1200
G1 X157.341 Y100.37 E.02755
G1 X156.797 Y100.37 E.01741
G1 X157.78 Y101.353 E.04449
G1 X157.78 Y101.897 E.01741
G1 X156.253 Y100.37 E.06911
G1 X155.708 Y100.37 E.01741
G1 X157.78 Y102.442 E.09373
G1 X157.78 Y102.986 E.01741
G1 X155.164 Y100.37 E.11835
G1 X154.62 Y100.37 E.01741
G1 X157.78 Y103.53 E.14297
G1 X157.78 Y104.074 E.01741
G1 X154.076 Y100.37 E.16759
G1 X153.532 Y100.37 E.01741
G1 X157.78 Y104.618 E.19221
G1 X157.78 Y105.162 E.01741
G1 X152.988 Y100.37 E.21683
G1 X152.444 Y100.37 E.01741
G1 X157.78 Y105.706 E.24145
G1 X157.78 Y106.25 E.01741
G1 X151.9 Y100.37 E.26607
G1 X151.355 Y100.37 E.01741
G1 X157.78 Y106.795 E.29069
G1 X157.78 Y107.339 E.01741
M73 P5 R9
M73 Q5 S9
G1 X150.811 Y100.37 E.31531
G1 X150.267 Y100.37 E.01741
G1 X157.78 Y107.883 E.33993
G1 X157.78 Y108.427 E.01741
G1 X149.723 Y100.37 E.36455
G1 X149.179 Y100.37 E.01741
G1 X157.78 Y108.971 E.38917
G1 X157.78 Y109.515 E.01741
G1 X148.635 Y100.37 E.41379
G1 X148.091 Y100.37 E.01741
G1 X157.351 Y109.63 E.41898
G1 X156.807 Y109.63 E.01741
G1 X147.546 Y100.37 E.41898
G1 X147.002 Y100.37 E.01741
G1 X156.262 Y109.63 E.41898
G1 X155.718 Y109.63 E.01741
G1 X146.458 Y100.37 E.41898
G1 X145.914 Y100.37 E.01741
M73 P6 R9
M73 Q6 S9
G1 X155.174 Y109.63 E.41898
G1 X154.63 Y109.63 E.01741
G1 X145.37 Y100.37 E.41898
G1 X144.826 Y100.37 E.01741
G1 X154.086 Y109.63 E.41898
G1 X153.542 Y109.63 E.01741
G1 X144.282 Y100.37 E.41898
G1 X143.737 Y100.37 E.01741
G1 X152.998 Y109.63 E.41898
G1 X152.453 Y109.63 E.01741
G1 X143.193 Y100.37 E.41898
G1 X142.649 Y100.37 E.01741
G1 X151.909 Y109.63 E.41898
G1 X151.365 Y109.63 E.01741
G1 X142.22 Y100.485 E.41379
G1 X142.22 Y101.029 E.01741
G1 X150.821 Y109.63 E.38917
G1 X150.277 Y109.63 E.01741
M73 P7 R9
M73 Q7 S9
G1 X142.22 Y101.573 E.36455
G1 X142.22 Y102.117 E.01741
G1 X149.733 Y109.63 E.33993
G1 X149.189 Y109.63 E.01741
G1 X142.22 Y102.661 E.31531
G1 X142.22 Y103.205 E.01741
G1 X148.645 Y109.63 E.29069
G1 X148.1 Y109.63 E.01741
G1 X142.22 Y103.75 E.26607
G1 X142.22 Y104.294 E.01741
G1 X147.556 Y109.63 E.24145
G1 X147.012 Y109.63 E.01741
G1 X142.22 Y104.838 E.21683
G1 X142.22 Y105.382 E.01741
G1 X146.468 Y109.63 E.19221
G1 X145.924 Y109.63 E.01741
G1 X142.22 Y105.926 E.16759
G1 X142.22 Y106.47 E.01741
G1 X145.38 Y109.63 E.14297
G1 X144.836 Y109.63 E.01741
G1 X142.22 Y107.014 E.11835
G1 X142.22 Y107.559 E.01741
G1 X144.291 Y109.63 E.09373
G1 X143.747 Y109.63 E.01741
G1 X142.22 Y108.103 E.06911
G1 X142.22 Y108.647 E.01741
G1 X143.203 Y109.63 E.04449
G1 X142.659 Y109.63 E.01741
G1 X142.05 Y109.021 E.02754
M204 S1000
; stop printing object HHKBusbcover.stl id:1 copy 0
; printing object HHKBusbcover.stl id:0 copy 0
;WIPE_START
G1 F8640
G1 X142.659 Y109.63 E-.19879
G1 X143.203 Y109.63 E-.12564
G1 X142.22 Y108.647 E-.32107
G1 X142.22 Y108.103 E-.12564
G1 X142.768 Y108.65 E-.17886
;WIPE_END
G1 E-.05 F2100
G1 Z.4 F720
M73 Q8 S9
G1 X116.937 Y100.087 F10800
G1 Z.2 F720
M73 P8 R9
G1 E1 F2100
M204 S800
;TYPE:Perimeter
;WIDTH:0.419999
G1 F1200
G1 X133.063 Y100.087 E.50561
G1 X133.063 Y109.913 E.30808
G1 X116.937 Y109.913 E.50561
G1 X116.937 Y100.147 E.3062
M204 S1000
M73 P8 R8
G1 X116.56 Y99.71 F10800
M204 S800
;TYPE:External perimeter
G1 F1200
G1 X133.44 Y99.71 E.52926
G1 X133.44 Y110.29 E.33173
G1 X116.56 Y110.29 E.52926
G1 X116.56 Y99.77 E.32985
M204 S1000
M73 Q8 S8
G1 X116.953 Y99.784 F10800
;WIPE_START
M73 Q9 S8
G1 F8640
G1 X120.674 Y99.755 E-.95
;WIPE_END
G1 E-.05 F2100
G1 Z.4 F720
G1 X132.95 Y100.979 F10800
M73 P9 R8
G1 Z.2 F720
G1 E1 F2100
M204 S800
;TYPE:Solid infill
;WIDTH:0.427686
G1 F1200
G1 X132.341 Y100.37 E.02755
G1 X131.797 Y100.37 E.01741
G1 X132.78 Y101.353 E.04449
G1 X132.78 Y101.897 E.01741
G1 X131.253 Y100.37 E.06911
G1 X130.708 Y100.37 E.01741
G1 X132.78 Y102.442 E.09373
G1 X132.78 Y102.986 E.01741
G1 X130.164 Y100.37 E.11835
G1 X129.62 Y100.37 E.01741
G1 X132.78 Y103.53 E.14297
G1 X132.78 Y104.074 E.01741
G1 X129.076 Y100.37 E.16759
G1 X128.532 Y100.37 E.01741
G1 X132.78 Y104.618 E.19221
G1 X132.78 Y105.162 E.01741
G1 X127.988 Y100.37 E.21683
G1 X127.444 Y100.37 E.01741
G1 X132.78 Y105.706 E.24145
G1 X132.78 Y106.25 E.01741
G1 X126.9 Y100.37 E.26607
G1 X126.355 Y100.37 E.01741
G1 X132.78 Y106.795 E.29069
G1 X132.78 Y107.339 E.01741
G1 X125.811 Y100.37 E.31531
G1 X125.267 Y100.37 E.01741
G1 X132.78 Y107.883 E.33993
G1 X132.78 Y108.427 E.01741
G1 X124.723 Y100.37 E.36455
G1 X124.179 Y100.37 E.01741
G1 X132.78 Y108.971 E.38917
G1 X132.78 Y109.515 E.01741
M73 P10 R8
M73 Q10 S8
G1 X123.635 Y100.37 E.41379
G1 X123.091 Y100.37 E.01741
G1 X132.351 Y109.63 E.41898
G1 X131.807 Y109.63 E.01741
G1 X122.546 Y100.37 E.41898
G1 X122.002 Y100.37 E.01741
G1 X131.262 Y109.63 E.41898
G1 X130.718 Y109.63 E.01741
G1 X121.458 Y100.37 E.41898
G1 X120.914 Y100.37 E.01741
G1 X130.174 Y109.63 E.41898
G1 X129.63 Y109.63 E.01741
G1 X120.37 Y100.37 E.41898
G1 X119.826 Y100.37 E.01741
G1 X129.086 Y109.63 E.41898
G1 X128.542 Y109.63 E.01741
G1 X119.282 Y100.37 E.41898
M73 Q11 S8
G1 X118.737 Y100.37 E.01741
M73 P11 R8
G1 X127.998 Y109.63 E.41898
G1 X127.453 Y109.63 E.01741
G1 X118.193 Y100.37 E.41898
G1 X117.649 Y100.37 E.01741
G1 X126.909 Y109.63 E.41898
G1 X126.365 Y109.63 E.01741
G1 X117.22 Y100.485 E.41379
G1 X117.22 Y101.029 E.01741
G1 X125.821 Y109.63 E.38917
G1 X125.277 Y109.63 E.01741
G1 X117.22 Y101.573 E.36455
G1 X117.22 Y102.117 E.01741
G1 X124.733 Y109.63 E.33993
G1 X124.189 Y109.63 E.01741
G1 X117.22 Y102.661 E.31531
G1 X117.22 Y103.205 E.01741
G1 X123.645 Y109.63 E.29069
G1 X123.1 Y109.63 E.01741
M73 P12 R8
M73 Q12 S8
G1 X117.22 Y103.75 E.26607
G1 X117.22 Y104.294 E.01741
G1 X122.556 Y109.63 E.24145
G1 X122.012 Y109.63 E.01741
G1 X117.22 Y104.838 E.21683
G1 X117.22 Y105.382 E.01741
G1 X121.468 Y109.63 E.19221
G1 X120.924 Y109.63 E.01741
G1 X117.22 Y105.926 E.16759
G1 X117.22 Y106.47 E.01741
G1 X120.38 Y109.63 E.14297
G1 X119.836 Y109.63 E.01741
G1 X117.22 Y107.014 E.11835
G1 X117.22 Y107.559 E.01741
G1 X119.291 Y109.63 E.09373
G1 X118.747 Y109.63 E.01741
G1 X117.22 Y108.103 E.06911
G1 X117.22 Y108.647 E.01741
G1 X118.203 Y109.63 E.04449
G1 X117.659 Y109.63 E.01741
G1 X117.05 Y109.021 E.02754
M204 S1000
; stop printing object HHKBusbcover.stl id:0 copy 0
;LAYER_CHANGE
;Z:0.35
;HEIGHT:0.15
;BEFORE_LAYER_CHANGE
G92 E0.0
;0.35


;WIPE_START
G1 F8640
G1 X117.659 Y109.63 E-.19879
G1 X118.203 Y109.63 E-.12564
G1 X117.22 Y108.647 E-.32107
G1 X117.22 Y108.103 E-.12564
G1 X117.768 Y108.65 E-.17886
;WIPE_END
G1 E-.05 F2100
G1 Z.4 F720
;AFTER_LAYER_CHANGE
;0.35
M104 S250 ; set temperature
M140 S90 ; set bed temperature
G1 X113.396 Y108.65 F10800
G1 Z.35 F720
G1 E1 F2100
;TYPE:Skirt/Brim
;WIDTH:0.42
G1 F3000
G1 X113.396 Y99.3 E.22614
G1 X113.789 Y97.883 E.03557
G1 X114.855 Y96.869 E.03557
G1 X116.15 Y96.546 E.03229
G1 X158.85 Y96.546 E1.03269
G1 X160.267 Y96.939 E.03557
G1 X161.281 Y98.005 E.03557
G1 X161.604 Y99.3 E.03229
G1 X161.604 Y110.7 E.27571
G1 X161.211 Y112.117 E.03557
G1 X160.145 Y113.131 E.03557
G1 X158.85 Y113.454 E.03229
G1 X116.15 Y113.454 E1.03269
G1 X114.733 Y113.061 E.03557
M73 P13 R8
M73 Q13 S8
G1 X113.719 Y111.995 E.03557
G1 X113.396 Y110.7 E.03229
G1 X113.396 Y108.71 E.04812
G1 X113.773 Y108.71 F10800
G1 F3000
G1 X113.773 Y99.3 E.22759
G1 X114.165 Y97.993 E.033
G1 X115.21 Y97.117 E.033
G1 X116.15 Y96.923 E.02321
G1 X158.85 Y96.923 E1.03269
G1 X160.157 Y97.315 E.033
G1 X161.033 Y98.36 E.033
G1 X161.227 Y99.3 E.02321
G1 X161.227 Y110.7 E.27571
G1 X160.835 Y112.007 E.033
G1 X159.79 Y112.883 E.033
G1 X158.85 Y113.077 E.02321
G1 X116.15 Y113.077 E1.03269
G1 X114.843 Y112.685 E.033
G1 X113.967 Y111.64 E.033
G1 X113.773 Y110.7 E.02321
G1 X113.773 Y108.77 E.04666
; printing object HHKBusbcover.stl id:1 copy 0
;WIPE_START
G1 F8640
G1 X113.773 Y104.656 E-.95
;WIPE_END
G1 E-.05 F2100
G1 Z.55 F720
G1 X141.793 Y99.943 F10800
G1 Z.35 F720
G1 E1 F2100
M204 S800
;TYPE:Perimeter
;WIDTH:0.449999
G1 F2700
G1 X158.207 Y99.943 E.42769
G1 X158.207 Y110.057 E.26354
G1 X141.793 Y110.057 E.42769
G1 X141.793 Y100.003 E.26197
M204 S1000
G1 X141.375 Y99.525 F10800
M204 S800
;TYPE:External perimeter
G1 F1500
G1 X158.625 Y99.525 E.44946
G1 X158.625 Y110.475 E.28531
M73 P14 R8
M73 Q14 S8
G1 X141.375 Y110.475 E.44946
G1 X141.375 Y99.585 E.28375
M204 S1000
G1 X141.768 Y99.6 F10800
;WIPE_START
G1 F8640
G1 X145.489 Y99.571 E-.95
;WIPE_END
G1 E-.05 F2100
G1 Z.55 F720
G1 X158.082 Y109.083 F10800
G1 Z.35 F720
G1 E1 F2100
;TYPE:Solid infill
;WIDTH:0.451809
G1 F4800
G1 X157.421 Y109.744 E.02444
G1 X156.828 Y109.744 E.01553
G1 X157.894 Y108.678 E.03944
G1 X157.894 Y108.085 E.01553
G1 X156.235 Y109.744 E.06141
G1 X155.641 Y109.744 E.01553
G1 X157.894 Y107.491 E.08337
G1 X157.894 Y106.898 E.01553
G1 X155.048 Y109.744 E.10533
G1 X154.454 Y109.744 E.01553
G1 X157.894 Y106.304 E.12729
G1 X157.894 Y105.711 E.01553
G1 X153.861 Y109.744 E.14925
G1 X153.267 Y109.744 E.01553
G1 X157.894 Y105.117 E.17121
G1 X157.894 Y104.524 E.01553
G1 X152.674 Y109.744 E.19318
G1 X152.081 Y109.744 E.01553
G1 X157.894 Y103.931 E.21514
G1 X157.894 Y103.337 E.01553
G1 X151.487 Y109.744 E.2371
G1 X150.894 Y109.744 E.01553
G1 X157.894 Y102.744 E.25906
G1 X157.894 Y102.15 E.01553
G1 X150.3 Y109.744 E.28102
G1 X149.707 Y109.744 E.01553
G1 X157.894 Y101.557 E.30298
G1 X157.894 Y100.963 E.01553
G1 X149.113 Y109.744 E.32495
G1 X148.52 Y109.744 E.01553
G1 X157.894 Y100.37 E.34691
G1 X157.894 Y100.256 E.00298
G1 X157.414 Y100.256 E.01255
G1 X147.927 Y109.744 E.35112
G1 X147.333 Y109.744 E.01553
G1 X156.821 Y100.256 E.35112
G1 X156.227 Y100.256 E.01553
G1 X146.74 Y109.744 E.35112
G1 X146.146 Y109.744 E.01553
G1 X155.634 Y100.256 E.35112
M73 Q15 S8
G1 X155.04 Y100.256 E.01553
M73 P15 R8
G1 X145.553 Y109.744 E.35112
G1 X144.959 Y109.744 E.01553
G1 X154.447 Y100.256 E.35112
G1 X153.854 Y100.256 E.01553
G1 X144.366 Y109.744 E.35112
G1 X143.773 Y109.744 E.01553
G1 X153.26 Y100.256 E.35112
G1 X152.667 Y100.256 E.01553
G1 X143.179 Y109.744 E.35112
G1 X142.586 Y109.744 E.01553
G1 X152.073 Y100.256 E.35112
G1 X151.48 Y100.256 E.01553
G1 X142.106 Y109.63 E.3469
G1 X142.106 Y109.036 E.01553
G1 X150.886 Y100.256 E.32494
G1 X150.293 Y100.256 E.01553
G1 X142.106 Y108.443 E.30298
G1 X142.106 Y107.85 E.01553
G1 X149.7 Y100.256 E.28102
G1 X149.106 Y100.256 E.01553
G1 X142.106 Y107.256 E.25906
G1 X142.106 Y106.663 E.01553
G1 X148.513 Y100.256 E.23709
G1 X147.919 Y100.256 E.01553
G1 X142.106 Y106.069 E.21513
G1 X142.106 Y105.476 E.01553
G1 X147.326 Y100.256 E.19317
G1 X146.732 Y100.256 E.01553
G1 X142.106 Y104.882 E.17121
G1 X142.106 Y104.289 E.01553
G1 X146.139 Y100.256 E.14925
G1 X145.546 Y100.256 E.01553
G1 X142.106 Y103.696 E.12729
G1 X142.106 Y103.102 E.01553
G1 X144.952 Y100.256 E.10532
G1 X144.359 Y100.256 E.01553
G1 X142.106 Y102.509 E.08336
G1 X142.106 Y101.915 E.01553
G1 X143.765 Y100.256 E.0614
G1 X143.172 Y100.256 E.01553
G1 X142.106 Y101.322 E.03944
G1 X142.106 Y100.728 E.01553
G1 X142.766 Y100.068 E.02444
; stop printing object HHKBusbcover.stl id:1 copy 0
; printing object HHKBusbcover.stl id:0 copy 0
;WIPE_START
G1 F8640
G1 X142.106 Y100.728 E-.21561
G1 X142.106 Y101.322 E-.13702
G1 X143.172 Y100.256 E-.348
G1 X143.765 Y100.256 E-.13702
G1 X143.421 Y100.6 E-.11234
;WIPE_END
G1 E-.05 F2100
G1 Z.55 F720
G1 X116.793 Y99.943 F10800
G1 Z.35 F720
G1 E1 F2100
M204 S800
;TYPE:Perimeter
;WIDTH:0.449999
G1 F2700
G1 X133.207 Y99.943 E.42769
G1 X133.207 Y110.057 E.26354
G1 X116.793 Y110.057 E.42769
M73 P16 R8
M73 Q16 S8
G1 X116.793 Y100.003 E.26197
M204 S1000
G1 X116.375 Y99.525 F10800
M204 S800
;TYPE:External perimeter
G1 F1500
G1 X133.625 Y99.525 E.44946
G1 X133.625 Y110.475 E.28531
G1 X116.375 Y110.475 E.44946
G1 X116.375 Y99.585 E.28375
M204 S1000
G1 X116.768 Y99.6 F10800
;WIPE_START
G1 F8640
G1 X120.489 Y99.571 E-.95
;WIPE_END
G1 E-.05 F2100
G1 Z.55 F720
G1 X133.082 Y109.083 F10800
G1 Z.35 F720
G1 E1 F2100
;TYPE:Solid infill
;WIDTH:0.451809
G1 F4800
G1 X132.421 Y109.744 E.02444
G1 X131.828 Y109.744 E.01553
G1 X132.894 Y108.678 E.03944
G1 X132.894 Y108.085 E.01553
G1 X131.235 Y109.744 E.06141
G1 X130.641 Y109.744 E.01553
G1 X132.894 Y107.491 E.08337
G1 X132.894 Y106.898 E.01553
G1 X130.048 Y109.744 E.10533
G1 X129.454 Y109.744 E.01553
G1 X132.894 Y106.304 E.12729
G1 X132.894 Y105.711 E.01553
